!!!OTL: MAEDCHEN WARUM WEINEST DU
!!!ARE: Europa, Mitteleuropa, Deutschland, Rheinprovinz; Unter - Taunus
!!!SCT: E0764
!!!YEM: Copyright 1995, estate of Helmut Schaffrath.
**kern
*ICvox
*Ivox
*M2/4
*k[b-]
*F:
=1
{8a
8a
8a
8a
=2
8a
8cc
4cc}
=3
{8cc
8b-
8b-
8b-
=4
4a
4r}
=5
{8g
8b-
8b-
8b-
=6
8a
8cc
8cc
8cc}
=7
{8g
8b-
8b-
8b-
=8
8a
8cc
8cc
8cc}
=9
{8a
8a
8a
8a
=10
8a
8cc
4cc}
=11
{8cc
8b-
8b-
8b-
=12
4a
4r}
==
!!!AGN: Abschieds - Lied, Liebe
!!!ONB: ESAC (Essen Associative Code) Database: ERK2
!!!AMT: simple duple
!!!AIN: vox
!!!EED: Helmut Schaffrath
!!!EEV: 1.0
*-
